img/svg-icons/malicious.svg

<svg xmlns="http://www.w3.org/2000/svg" id="malicious" viewBox="0 0 61.2 60"><path d="M59.2 51.6a6.44 6.44 0 0 1-6.4 6.4H8.4A6.44 6.44 0 0 1 2 51.6V12.3H0v39.3A8.45 8.45 0 0 0 8.4 60h44.4a8.45 8.45 0 0 0 8.4-8.4V12.3h-2v39.3zM52.8 0H8.4A8.45 8.45 0 0 0 0 8.4v2.1h61.2V8.4A8.39 8.39 0 0 0 52.8 0zm6.4 8.4H2v-.1a6.44 6.44 0 0 1 6.4-6.4h44.4a6.53 6.53 0 0 1 6.4 6.5z"/><path d="M29.6 33.2a3.3 3.3 0 1 0-3.3 3.3 3.33 3.33 0 0 0 3.3-3.3zm-4.5 0a1.3 1.3 0 1 1 1.3 1.3 1.32 1.32 0 0 1-1.3-1.3zM35 36.5a3.3 3.3 0 1 0-3.3-3.3 3.33 3.33 0 0 0 3.3 3.3zm0-4.5a1.3 1.3 0 1 1-1.3 1.3A1.32 1.32 0 0 1 35 32z"/><path d="M28.2 48.3h4.7a4.48 4.48 0 0 0 4.5-4.5v-3.5a11.84 11.84 0 0 0-6.8-21.5 5.7 5.7 0 0 0-1.3.1 11.83 11.83 0 0 0-5.5 21.4v3.5a4.46 4.46 0 0 0 4.4 4.5zm7.2-4.5a2.48 2.48 0 0 1-2.5 2.5h-4.7a2.48 2.48 0 0 1-2.5-2.5v-.2h9.7v.2zM20.8 29.5a9.78 9.78 0 0 1 8.6-8.6c.4 0 .8-.1 1.1-.1a9.84 9.84 0 0 1 5.3 18.1l-.5.3v2.4h-9.7v-2.4l-.5-.3a10.18 10.18 0 0 1-4.3-9.4z"/></svg>

<svg id="malicious" xmlns="http://www.w3.org/2000/svg" width="61.2" height="60" viewBox="0 0 61.2 60"><title>malicious</title><path d="M59.2,51.6A6.44,6.44,0,0,1,52.8,58H8.4A6.44,6.44,0,0,1,2,51.6V12.3H0V51.6A8.45,8.45,0,0,0,8.4,60H52.8a8.45,8.45,0,0,0,8.4-8.4V12.3h-2V51.6h0Z" transform="translate(0)"  /><path d="M52.8,0H8.4A8.45,8.45,0,0,0,0,8.4v2.1H61.2V8.4A8.39,8.39,0,0,0,52.8,0Zm6.4,8.4H2V8.3A6.44,6.44,0,0,1,8.4,1.9H52.8a6.53,6.53,0,0,1,6.4,6.5h0Z" transform="translate(0)"  /><path d="M29.6,33.2a3.3,3.3,0,1,0-3.3,3.3A3.33,3.33,0,0,0,29.6,33.2Zm-4.5,0a1.3,1.3,0,1,1,1.3,1.3A1.32,1.32,0,0,1,25.1,33.2Z" transform="translate(0)"  /><path d="M35,36.5a3.3,3.3,0,1,0-3.3-3.3A3.33,3.33,0,0,0,35,36.5ZM35,32a1.3,1.3,0,1,1-1.3,1.3A1.32,1.32,0,0,1,35,32Z" transform="translate(0)"  /><path d="M28.2,48.3h4.7a4.48,4.48,0,0,0,4.5-4.5V40.3a11.84,11.84,0,0,0-6.8-21.5,5.7,5.7,0,0,0-1.3.1,11.83,11.83,0,0,0-5.5,21.4v3.5A4.46,4.46,0,0,0,28.2,48.3Zm7.2-4.5a2.48,2.48,0,0,1-2.5,2.5H28.2a2.48,2.48,0,0,1-2.5-2.5V43.6h9.7v0.2ZM20.8,29.5a9.78,9.78,0,0,1,8.6-8.6c0.4,0,.8-0.1,1.1-0.1a9.84,9.84,0,0,1,5.3,18.1l-0.5.3v2.4H25.6V39.2l-0.5-.3A10.18,10.18,0,0,1,20.8,29.5Z" transform="translate(0)"  /></svg>
